src/images/icons/feature-speech-freedom.svg

<svg width="134px" height="134px" viewBox="0 0 134 134" xmlns="http://www.w3.org/2000/svg">
    <g stroke="none" stroke-width="1" fill="none" fill-rule="evenodd">
        <path d="M69,54 L69,78 L61.3250062,74.8237199 C60.3499618,74.4201998 59.3540839,74.0689614 58.3420113,73.7710825 L59.4479802,79.819951 C59.7512772,81.4769469 58.6423024,82.9019965 57.0019538,82.9951587 L56.8304032,83 L54.8304032,83 C53.3012452,83 51.8825812,81.8505461 51.5191509,80.3604445 L51.4806649,80.180049 L50.074,72.497 L48.7279044,72.4099785 C46.6969443,72.2772666 45.1056011,70.7075557 45.0050472,68.7793004 L45,68.5853196 L45,63.4146804 C45,61.4637204 46.5258284,59.8353563 48.5263128,59.6080427 L48.7279044,59.5900215 L51.8010545,59.3892083 C54.8648624,59.1890056 57.8746385,58.5237845 60.718246,57.4196004 L61.3250062,57.1762801 L69,54 Z M73.5,51 C75.3685634,51 76.8951264,52.4642776 76.9948211,54.3079648 L77,54.5 L77.0008967,61.7289121 C77.9323966,62.7151004 78.5,64.0432584 78.5,65.5 C78.5,66.9611326 77.9302395,68.2891905 77.0007734,69.2741187 L77,77.5 C77,79.4329966 75.4329966,81 73.5,81 C71.6314366,81 70.1048736,79.5357224 70.0051789,77.6920352 L70,77.5 L70,54.5 C70,52.5670034 71.5670034,51 73.5,51 Z M81.4694716,71.1170524 L86.7671571,73.9338818 C87.2547956,74.1931638 87.4399151,74.7986624 87.1806332,75.2863009 C86.9213512,75.7739394 86.3158525,75.959059 85.828214,75.699777 L80.5305284,72.8829476 C80.0428899,72.6236656 79.8577704,72.0181669 80.1170524,71.5305284 C80.3763344,71.0428899 80.9818331,70.8577704 81.4694716,71.1170524 Z M89,64.5 C89.5522847,64.5 90,64.9477153 90,65.5 C90,66.0522847 89.5522847,66.5 89,66.5 L83,66.5 C82.4477153,66.5 82,66.0522847 82,65.5 C82,64.9477153 82.4477153,64.5 83,64.5 L89,64.5 Z M87.1806332,55.7136991 C87.4399151,56.2013376 87.2547956,56.8068362 86.7671571,57.0661182 L81.4694716,59.8829476 C80.9818331,60.1422296 80.3763344,59.9571101 80.1170524,59.4694716 C79.8577704,58.9818331 80.0428899,58.3763344 80.5305284,58.1170524 L85.828214,55.300223 C86.3158525,55.040941 86.9213512,55.2260606 87.1806332,55.7136991 Z" fill="#BAF9CD" fill-rule="nonzero"></path>
    </g>
</svg>

<svg xmlns="http://www.w3.org/2000/svg" viewBox="0 0 134 134">
  <path
    d="M69 54v24l-7.675-3.176a29.817 29.817 0 00-2.983-1.053l1.106 6.049c.303 1.657-.806 3.082-2.446 3.175L56.83 83h-2c-1.529 0-2.947-1.15-3.31-2.64l-.04-.18-1.406-7.683-1.346-.087c-2.031-.133-3.622-1.702-3.723-3.63L45 68.584v-5.17c0-1.951 1.526-3.58 3.526-3.807l.202-.018 3.073-.2c3.064-.201 6.074-.866 8.917-1.97l.607-.244L69 54zm4.5-3a3.5 3.5 0 013.495 3.308L77 54.5v7.229a5.475 5.475 0 011.5 3.771c0 1.461-.57 2.79-1.5 3.774V77.5a3.5 3.5 0 01-6.995.192L70 77.5v-23a3.5 3.5 0 013.5-3.5zm7.97 20.117l5.297 2.817a1 1 0 01-.939 1.766l-5.297-2.817a1 1 0 11.938-1.766zM89 64.5a1 1 0 010 2h-6a1 1 0 010-2h6zm-1.82-8.786a1 1 0 01-.413 1.352l-5.298 2.817a1 1 0 11-.938-1.766l5.297-2.817a1 1 0 011.353.414z"
    fill="#BAF9CD" fill-rule="nonzero" />
</svg>
